X: 33212
T: Providence, The
R: reel
M: 4/4
K: Dmajor
|:E3F DEFA|d2fd gefd|edBd A2FA|(3Bcd AF GFED|
E3F DEFA|d2fd gefd|edBd A2FA|1 (3Bcd AG FDDF:|2 (3Bcd AG FDDe||
|:fd d2 fdgd|fd d2 ecAc|fd d2 fdgd|ceag fdde|
fgaf gfec|dBAF G2FG|(3ABA GB ABde|1 (3fga eg fdde:|2 (3fga eg fdAF||

